X: 12
T: Wink And She'll Follow You
Z: Jeremy
S: https://thesession.org/tunes/425#setting47738
R: slip jig
M: 9/8
L: 1/8
K: Edor
E2B BAF Bcd|E2B BAF A2F|E2B BAF Bcd|edB BAF A2F|
E2B BAF Bcd|E2B BAF A2F|E2B BAF Bcd|edB BAF ABc||
d2f fdB Bcd|c2e ecA ABc|d2f fdB Bcd|cBA BAF ABc|
d2f fdB Bcd|c2e ecA Ace|aba aec Bcd|cBA BAF AFD||

